build/dist/assets/images/services/service2.svg

<svg width="52" height="52" viewBox="0 0 52 52" fill="none" xmlns="http://www.w3.org/2000/svg">
<g clip-path="url(#clip0_413_1891)">
<g clip-path="url(#clip1_413_1891)">
<path d="M37.1123 7.49729L40.7513 9.05947C41.5152 9.38683 42.2335 9.81163 42.8883 10.3233C43.0043 10.4144 43.1476 10.4639 43.2951 10.4637C43.4327 10.4639 43.567 10.4211 43.679 10.3412C43.7911 10.2614 43.8755 10.1486 43.9204 10.0186C43.9653 9.88849 43.9685 9.74765 43.9295 9.6157C43.8905 9.48374 43.8112 9.36725 43.7029 9.28249C42.9582 8.70058 42.1414 8.21743 41.2728 7.84508L37.6336 6.28281C36.9573 5.99305 36.3383 5.58458 35.806 5.07671C34.5859 3.91422 33.8863 2.28111 33.8863 0.5961V-0.339144C33.8863 -0.704201 33.5905 -1 33.2255 -1C32.8604 -1 32.5646 -0.704201 32.5646 -0.339144V0.596012C32.5646 2.64088 33.4138 4.62274 34.8942 6.03345C35.5403 6.64981 36.2915 7.14557 37.1123 7.49729ZM48.9246 36.6572L48.1564 35.1799C48.1028 35.0764 48.0747 34.9616 48.0746 34.8451V27.4588C48.0747 26.9402 47.9671 26.4272 47.7586 25.9523C47.5501 25.4775 47.2452 25.0511 46.8632 24.7003C46.8635 24.6921 46.8645 24.6841 46.8645 24.6758L46.8646 22.4853C48.5301 18.9077 48.1373 14.7109 45.8262 11.4956C45.7756 11.4252 45.7116 11.3653 45.6378 11.3196C45.564 11.2739 45.482 11.2431 45.3964 11.2291C45.3107 11.2151 45.2231 11.2181 45.1386 11.2379C45.0542 11.2578 44.9744 11.294 44.9039 11.3447C44.8335 11.3954 44.7737 11.4594 44.7279 11.5331C44.6822 11.6069 44.6514 11.6889 44.6374 11.7746C44.6234 11.8602 44.6264 11.9478 44.6462 12.0323C44.6661 12.1168 44.7023 12.1965 44.753 12.267C46.811 15.1303 47.1388 18.8786 45.6084 22.0495C45.5652 22.1391 45.5428 22.2373 45.5428 22.3368V23.5675L39.3557 18.2831V17.5149C39.3557 17.1498 39.0599 16.854 38.6949 16.854C38.3298 16.854 38.034 17.1498 38.034 17.5149V26.7597C38.034 27.663 37.8713 28.564 37.5599 29.4109L37.4435 29.2169C37.0996 28.6436 36.5507 28.2477 35.8982 28.1021C35.2458 27.9569 34.5807 28.0815 34.0257 28.454C33.0619 29.1008 32.6942 30.3445 33.1513 31.4115L34.9714 35.6593C35.4374 36.7464 36.1319 37.7204 37.0078 38.5152C37.0077 38.5301 37.0074 38.5449 37.0084 38.56L37.303 43.2133C37.3141 43.3883 37.3942 43.5516 37.5258 43.6675C37.6573 43.7833 37.8294 43.8422 38.0044 43.8311C38.1793 43.8201 38.3427 43.7399 38.4585 43.6084C38.5744 43.4769 38.6333 43.3047 38.6222 43.1298L38.3945 39.5341C38.6165 39.6637 38.8444 39.7828 39.0774 39.8912L39.822 40.2374L42.4071 43.732C42.4686 43.8153 42.5487 43.8829 42.6411 43.9294C42.7334 43.9759 42.8355 44.0001 42.9389 43.9999C43.0612 43.9999 43.1812 43.9659 43.2853 43.9017C43.3894 43.8375 43.4737 43.7457 43.5287 43.6364C43.5838 43.5271 43.6074 43.4047 43.5969 43.2829C43.5865 43.161 43.5424 43.0444 43.4696 42.9461L40.7843 39.3161C40.7187 39.2273 40.6318 39.1564 40.5316 39.1098L39.6344 38.6927C38.0859 37.974 36.8578 36.7082 36.1863 35.1387L34.3661 30.891C34.2658 30.6565 34.2505 30.3944 34.3228 30.1499C34.3951 29.9053 34.5505 29.6937 34.7622 29.5515C34.8851 29.4683 35.0238 29.4112 35.1697 29.3838C35.3156 29.3564 35.4655 29.3592 35.6103 29.3921C35.7553 29.4238 35.8922 29.485 36.0126 29.5718C36.133 29.6587 36.2342 29.7693 36.3101 29.8969L37.6402 32.1138C37.917 32.5748 38.4229 32.8612 38.9605 32.8612H39.8616C40.6203 32.8612 41.2594 32.3177 41.3814 31.5689L41.5165 30.7389C41.5304 30.6533 41.5274 30.5657 41.5075 30.4812C41.4876 30.3967 41.4513 30.317 41.4006 30.2466C41.3499 30.1762 41.2858 30.1164 41.212 30.0708C41.1382 30.0251 41.0561 29.9944 40.9704 29.9805C40.7975 29.9524 40.6204 29.9941 40.4782 30.0965C40.3359 30.1989 40.2402 30.3536 40.212 30.5266L40.077 31.3564C40.0688 31.4076 40.0426 31.4542 40.0032 31.4877C39.9637 31.5213 39.9135 31.5397 39.8617 31.5395H38.9606C38.923 31.5394 38.886 31.5296 38.8533 31.5111C38.8206 31.4925 38.7931 31.4659 38.7737 31.4337L38.3948 30.8022C39.0233 29.5525 39.3558 28.1585 39.3558 26.7595V24.1295L40.8754 25.9451C40.9194 25.9977 40.9384 26.0666 40.9273 26.1342L40.6708 27.7103C40.6553 27.8049 40.6606 27.9018 40.6864 27.9941C40.7121 28.0864 40.7576 28.172 40.8197 28.245C40.8818 28.318 40.9591 28.3766 41.0462 28.4167C41.1332 28.4569 41.2279 28.4776 41.3238 28.4775C41.4805 28.4772 41.6321 28.4213 41.7514 28.3197C41.8707 28.2181 41.9501 28.0774 41.9753 27.9227L42.2319 26.3465C42.2679 26.1258 42.2559 25.8999 42.1967 25.6842C42.1375 25.4686 42.0325 25.2682 41.8889 25.0968L39.3558 22.0704V20.0212L45.9015 25.6119C46.1686 25.8397 46.3831 26.1229 46.5301 26.4417C46.6771 26.7606 46.7531 27.1076 46.7528 27.4587V34.845C46.7528 35.1725 46.8327 35.4991 46.9837 35.7895L47.7519 37.2668C47.7919 37.3438 47.8467 37.4122 47.9132 37.468C47.9796 37.5238 48.0564 37.566 48.1392 37.5922C48.2219 37.6183 48.309 37.6279 48.3955 37.6204C48.4819 37.6129 48.5661 37.5884 48.6431 37.5484C48.7201 37.5083 48.7884 37.4535 48.8442 37.3871C48.9001 37.3206 48.9423 37.2438 48.9684 37.1611C48.9945 37.0783 49.0041 36.9912 48.9966 36.9048C48.9891 36.8183 48.9646 36.7342 48.9246 36.6572ZM31.3287 25.9247C30.1294 27.0028 29.4416 28.5454 29.4416 30.1569C29.4416 31.0794 29.6676 31.9957 30.0953 32.8069C30.1358 32.8836 30.191 32.9517 30.2577 33.0071C30.3245 33.0626 30.4016 33.1043 30.4845 33.13C30.5674 33.1557 30.6545 33.1648 30.741 33.1567C30.8274 33.1487 30.9114 33.1238 30.9882 33.0833C31.1432 33.0015 31.2594 32.8615 31.3112 32.6941C31.3631 32.5266 31.3463 32.3455 31.2646 32.1904C30.9366 31.5685 30.7634 30.8653 30.7634 30.1569C30.7639 29.544 30.8931 28.9381 31.1427 28.3783C31.3924 27.8186 31.7567 27.3175 32.2123 26.9075C32.278 26.8498 32.3315 26.7797 32.3698 26.7011C32.4082 26.6226 32.4306 26.5372 32.4357 26.45C32.4408 26.3627 32.4286 26.2753 32.3997 26.1928C32.3708 26.1103 32.3258 26.0344 32.2674 25.9694C32.209 25.9044 32.1382 25.8516 32.0593 25.8142C31.9803 25.7767 31.8947 25.7553 31.8074 25.7511C31.7201 25.747 31.6328 25.7602 31.5507 25.79C31.4685 25.8198 31.3931 25.8656 31.3287 25.9247Z" fill="#009B97"/>
<path d="M33.9559 24.5892C33.7862 24.627 33.6383 24.7302 33.5441 24.8764C33.45 25.0226 33.4173 25.2 33.4531 25.3702C33.4888 25.5404 33.5902 25.6896 33.7352 25.7855C33.8803 25.8814 34.0573 25.9163 34.2278 25.8827C34.7869 25.7665 35.3631 25.7592 35.9249 25.8612C36.0107 25.878 36.099 25.8776 36.1847 25.86C36.2704 25.8424 36.3517 25.808 36.424 25.7588C36.4962 25.7095 36.558 25.6464 36.6057 25.5731C36.6534 25.4998 36.6861 25.4178 36.7019 25.3318C36.7176 25.2458 36.7162 25.1575 36.6976 25.072C36.679 24.9866 36.6436 24.9057 36.5935 24.834C36.5434 24.7623 36.4796 24.7013 36.4057 24.6545C36.3319 24.6077 36.2495 24.576 36.1633 24.5612C35.4382 24.4283 34.6758 24.4378 33.9559 24.5892ZM19.7746 -1C19.6878 -1.00001 19.6018 -0.982926 19.5216 -0.949719C19.4415 -0.916512 19.3686 -0.867834 19.3072 -0.806465C19.2459 -0.745097 19.1972 -0.67224 19.164 -0.592056C19.1308 -0.511872 19.1137 -0.425932 19.1137 -0.339144V0.596012C19.1137 2.28102 18.4141 3.91404 17.1941 5.07662C16.6616 5.58444 16.0426 5.99291 15.3663 6.28273L11.7273 7.8449C8.9633 9.03145 6.86081 11.2365 5.80732 14.054C4.7718 16.8235 4.88935 19.8115 6.13537 22.4854V24.6758C6.13537 24.6836 6.13625 24.6913 6.13651 24.699C5.75514 25.0432 5.45027 25.4636 5.24164 25.9331C5.03301 26.4026 4.92527 26.9106 4.92538 27.4243V28.5961C4.92538 28.9611 5.22118 29.2569 5.58624 29.2569C5.9513 29.2569 6.2471 28.9611 6.2471 28.5961V27.4243C6.24688 27.084 6.32055 26.7477 6.46302 26.4386C6.60549 26.1296 6.81337 25.8551 7.07229 25.6343L13.6441 20.0212V22.0704L11.111 25.0967C10.9674 25.2682 10.8624 25.4686 10.8032 25.6842C10.7441 25.8999 10.7321 26.1258 10.7681 26.3466L11.6184 31.5689C11.676 31.9302 11.8608 32.259 12.1395 32.4959C12.4182 32.7329 12.7723 32.8625 13.1382 32.8613H14.0392C14.5771 32.8613 15.083 32.5749 15.3595 32.1138L16.6897 29.8971C16.7655 29.7695 16.8668 29.6588 16.9872 29.5719C17.1076 29.4851 17.2445 29.4239 17.3895 29.3921C17.5343 29.3592 17.6842 29.3564 17.8301 29.3838C17.976 29.4113 18.1147 29.4684 18.2377 29.5516C18.4493 29.6938 18.6047 29.9054 18.677 30.1499C18.7492 30.3945 18.7339 30.6565 18.6337 30.891L16.8135 35.1388C16.1419 36.7083 14.9138 37.9742 13.3653 38.693L12.4681 39.1099C12.368 39.1565 12.2811 39.2274 12.2154 39.3162L9.53014 42.9462C9.47852 43.0159 9.44115 43.0952 9.42015 43.1794C9.39916 43.2636 9.39497 43.3511 9.40781 43.4369C9.42064 43.5227 9.45027 43.6052 9.49498 43.6796C9.53969 43.7539 9.59862 43.8188 9.6684 43.8704C9.78186 43.9547 9.91949 44.0002 10.0609 44C10.1643 44.0001 10.2663 43.976 10.3587 43.9294C10.451 43.8829 10.5312 43.8153 10.5926 43.7321L13.1778 40.2375L13.9223 39.8915C14.1554 39.7831 14.3833 39.6639 14.6053 39.5343L14.3776 43.1299C14.3721 43.2165 14.3837 43.3033 14.4118 43.3855C14.4399 43.4676 14.4839 43.5434 14.5412 43.6085C14.6571 43.74 14.8204 43.8201 14.9954 43.8312C15.1703 43.8423 15.3425 43.7834 15.474 43.6676C15.6055 43.5517 15.6856 43.3883 15.6967 43.2134L15.9914 38.5601C15.9923 38.545 15.992 38.5302 15.9919 38.5153C16.8678 37.7205 17.5623 36.7465 18.0282 35.6594L19.8484 31.4115C20.3055 30.3446 19.9378 29.1008 18.974 28.4541C18.4189 28.0816 17.7538 27.9566 17.1014 28.1023C16.4489 28.2478 15.9 28.6438 15.5562 29.2172L15.4398 29.4111C15.1284 28.564 14.9656 27.6631 14.9656 26.7597V17.5149C14.9656 17.1498 14.6698 16.854 14.3048 16.854C13.9397 16.854 13.6439 17.1498 13.6439 17.5149V18.2831L7.45682 23.5676V22.3368C7.4568 22.2373 7.43436 22.1391 7.39117 22.0495C6.24199 19.6685 6.11907 16.9934 7.04506 14.517C7.97105 12.0406 9.81925 10.1024 12.2487 9.05947L15.8877 7.49729C16.7084 7.14555 17.4597 6.64982 18.1059 6.03354C19.5864 4.62274 20.4354 2.64097 20.4354 0.5961V-0.339144C20.4354 -0.704201 20.1396 -1 19.7746 -1ZM14.2264 31.4339C14.2069 31.4661 14.1795 31.4927 14.1467 31.5113C14.114 31.5298 14.077 31.5396 14.0394 31.5397H13.1383C13.0865 31.5399 13.0364 31.5215 12.9969 31.4879C12.9574 31.4544 12.9312 31.4078 12.9231 31.3567L12.0728 26.1344C12.0673 26.101 12.0691 26.0668 12.0781 26.0342C12.087 26.0015 12.1029 25.9712 12.1247 25.9452L13.6443 24.1297V26.7598C13.6443 28.1587 13.9767 29.5528 14.6053 30.8024L14.2264 31.4339Z" fill="#009B97"/>
<path d="M5.58639 30.7518C5.4996 30.7518 5.41366 30.7688 5.33348 30.802C5.25329 30.8353 5.18044 30.8839 5.11907 30.9453C5.0577 31.0067 5.00902 31.0795 4.97581 31.1597C4.94261 31.2399 4.92552 31.3258 4.92553 31.4126V34.8634C4.92553 34.9676 4.90016 35.0714 4.85213 35.1637L4.07558 36.6572C3.99616 36.8125 3.9814 36.993 4.03451 37.1592C4.08763 37.3254 4.20432 37.4638 4.35912 37.5443C4.51392 37.6248 4.69427 37.6408 4.86083 37.5889C5.02739 37.5369 5.16664 37.4212 5.24821 37.2669L6.02476 35.7734C6.17055 35.4922 6.24681 35.1802 6.24716 34.8634V31.4126C6.24719 31.3258 6.23012 31.2399 6.19693 31.1597C6.16374 31.0795 6.11507 31.0066 6.0537 30.9453C5.99234 30.8839 5.91949 30.8352 5.8393 30.802C5.75912 30.7688 5.67318 30.7517 5.58639 30.7518ZM21.6714 25.9247C21.6068 25.8667 21.5315 25.8219 21.4497 25.793C21.3679 25.7641 21.2811 25.7516 21.1945 25.7562C21.1078 25.7608 21.0229 25.7824 20.9446 25.8198C20.8663 25.8573 20.7962 25.9098 20.7382 25.9743C20.6801 26.0388 20.6354 26.1142 20.6064 26.196C20.5775 26.2778 20.565 26.3645 20.5696 26.4512C20.5742 26.5379 20.5959 26.6228 20.6333 26.7011C20.6707 26.7794 20.7232 26.8495 20.7878 26.9075C21.2433 27.3175 21.6077 27.8186 21.8573 28.3783C22.1069 28.9381 22.2362 29.544 22.2367 30.1569C22.2367 30.8653 22.0634 31.5686 21.7355 32.1904C21.6559 32.3453 21.6406 32.5253 21.6929 32.6914C21.7452 32.8574 21.861 32.9962 22.015 33.0774C22.1691 33.1586 22.3489 33.1757 22.5155 33.1251C22.6821 33.0744 22.822 32.9601 22.9048 32.8069C23.3325 31.9957 23.5585 31.0794 23.5585 30.1569C23.5585 28.5455 22.8707 27.0029 21.6714 25.9247ZM16.8369 24.5611C16.4779 24.6269 16.2403 24.9713 16.3061 25.3303C16.3719 25.6893 16.7168 25.9272 17.0752 25.8611C17.6371 25.7591 18.2133 25.7664 18.7723 25.8826C18.9438 25.9186 19.1226 25.885 19.2694 25.7892C19.4162 25.6934 19.5189 25.5433 19.555 25.3718C19.5729 25.2868 19.5739 25.1992 19.5579 25.1139C19.5418 25.0286 19.5092 24.9473 19.4618 24.8746C19.4143 24.8019 19.353 24.7393 19.2814 24.6903C19.2098 24.6413 19.1292 24.6069 19.0442 24.5891C18.3243 24.4378 17.5619 24.4283 16.8369 24.5611ZM26.5703 -1C26.4835 -1.00001 26.3975 -0.982926 26.3173 -0.949719C26.2372 -0.916512 26.1643 -0.867834 26.1029 -0.806465C26.0416 -0.745097 25.9929 -0.67224 25.9597 -0.592056C25.9265 -0.511872 25.9094 -0.425932 25.9094 -0.339144V1.2062C25.9094 1.57126 26.2052 1.86706 26.5703 1.86706C26.9353 1.86706 27.2311 1.57126 27.2311 1.2062V-0.339144C27.2311 -0.704201 26.9353 -1 26.5703 -1ZM26.5703 4.91422C26.4835 4.91421 26.3975 4.9313 26.3173 4.9645C26.2372 4.99771 26.1643 5.04639 26.1029 5.10776C26.0416 5.16913 25.9929 5.24198 25.9597 5.32217C25.9265 5.40235 25.9094 5.48829 25.9094 5.57508V7.12034C25.9094 7.48539 26.2052 7.78119 26.5703 7.78119C26.9353 7.78119 27.2311 7.48539 27.2311 7.12034V5.57508C27.2311 5.39981 27.1615 5.23172 27.0375 5.10778C26.9136 4.98385 26.7455 4.91422 26.5703 4.91422ZM26.5703 10.8284C26.4835 10.8283 26.3975 10.8454 26.3173 10.8786C26.2372 10.9118 26.1643 10.9605 26.1029 11.0219C26.0416 11.0833 25.9929 11.1561 25.9597 11.2363C25.9265 11.3165 25.9094 11.4024 25.9094 11.4892V13.0345C25.9094 13.3995 26.2052 13.6953 26.5703 13.6953C26.9353 13.6953 27.2311 13.3995 27.2311 13.0345V11.4892C27.2311 11.3139 27.1615 11.1459 27.0375 11.0219C26.9136 10.898 26.7455 10.8284 26.5703 10.8284ZM26.5703 16.7425C26.4835 16.7425 26.3975 16.7596 26.3173 16.7928C26.2372 16.826 26.1643 16.8747 26.1029 16.936C26.0416 16.9974 25.9929 17.0703 25.9597 17.1504C25.9265 17.2306 25.9094 17.3166 25.9094 17.4034V18.9487C25.9094 19.3138 26.2052 19.6096 26.5703 19.6096C26.9353 19.6096 27.2311 19.3138 27.2311 18.9487V17.4034C27.2311 17.2281 27.1615 17.06 27.0375 16.9361C26.9136 16.8121 26.7455 16.7425 26.5703 16.7425ZM26.5703 22.6568C26.4835 22.6568 26.3975 22.6739 26.3173 22.7071C26.2372 22.7403 26.1643 22.789 26.1029 22.8503C26.0416 22.9117 25.9929 22.9846 25.9597 23.0647C25.9265 23.1449 25.9094 23.2309 25.9094 23.3177V24.8629C25.9094 25.228 26.2052 25.5238 26.5703 25.5238C26.9353 25.5238 27.2311 25.228 27.2311 24.8629V23.3177C27.2311 22.9526 26.9353 22.6568 26.5703 22.6568ZM26.5703 28.5709C26.4835 28.5709 26.3975 28.588 26.3173 28.6212C26.2372 28.6544 26.1643 28.7031 26.1029 28.7645C26.0416 28.8258 25.9929 28.8987 25.9597 28.9789C25.9265 29.0591 25.9094 29.145 25.9094 29.2318V30.7771C25.9094 31.1422 26.2052 31.438 26.5703 31.438C26.9353 31.438 27.2311 31.1422 27.2311 30.7771V29.2318C27.2311 28.8667 26.9353 28.5709 26.5703 28.5709ZM26.5703 34.4852C26.4835 34.4851 26.3975 34.5022 26.3173 34.5354C26.2372 34.5687 26.1643 34.6173 26.1029 34.6787C26.0416 34.7401 25.9929 34.8129 25.9597 34.8931C25.9265 34.9733 25.9094 35.0592 25.9094 35.146V36.6913C25.9094 37.0563 26.2052 37.3521 26.5703 37.3521C26.9353 37.3521 27.2311 37.0563 27.2311 36.6913V35.146C27.2311 34.781 26.9353 34.4852 26.5703 34.4852ZM26.5703 40.3993C26.4835 40.3993 26.3975 40.4164 26.3173 40.4496C26.2372 40.4828 26.1643 40.5315 26.1029 40.5928C26.0416 40.6542 25.9929 40.7271 25.9597 40.8072C25.9265 40.8874 25.9094 40.9734 25.9094 41.0602V42.6054C25.9094 42.9705 26.2052 43.2663 26.5703 43.2663C26.9353 43.2663 27.2311 42.9705 27.2311 42.6054V41.0602C27.2311 40.6951 26.9353 40.3993 26.5703 40.3993Z" fill="#009B97"/>
</g>
</g>
<defs>
<clipPath id="clip0_413_1891">
<rect width="52" height="52" fill="white"/>
</clipPath>
<clipPath id="clip1_413_1891">
<rect width="45" height="45" fill="white" transform="translate(4 -1)"/>
</clipPath>
</defs>
</svg>

<svg width="52" height="52" fill="none" xmlns="http://www.w3.org/2000/svg"><g clip-path="url(#clip0_413_1891)"><g clip-path="url(#clip1_413_1891)" fill="#009B97"><path d="M37.112 7.497l3.64 1.562a9.633 9.633 0 012.136 1.264.657.657 0 00.791.018.66.66 0 00.024-1.059 10.96 10.96 0 00-2.43-1.437l-3.64-1.562a6.164 6.164 0 01-1.827-1.206 6.216 6.216 0 01-1.92-4.48V-.34a.66.66 0 10-1.321 0v.935a7.54 7.54 0 002.33 5.437 7.484 7.484 0 002.217 1.464zm11.813 29.16l-.769-1.477a.73.73 0 01-.081-.335V27.46a3.746 3.746 0 00-1.212-2.759l.002-.024v-2.19a10.92 10.92 0 00-1.039-10.99.66.66 0 10-1.073.771 9.6 9.6 0 01.855 9.782.661.661 0 00-.065.288v1.23l-6.187-5.284v-.768a.66.66 0 10-1.322 0v9.245a7.7 7.7 0 01-.474 2.65l-.117-.193a2.394 2.394 0 00-1.545-1.115 2.418 2.418 0 00-2.747 3.31l1.82 4.247a8.24 8.24 0 002.037 2.856v.045l.295 4.653a.66.66 0 001.32-.083l-.228-3.596c.221.13.45.249.682.357l.745.346 2.585 3.495a.66.66 0 001.122-.096.66.66 0 00-.06-.69l-2.685-3.63a.66.66 0 00-.252-.206l-.898-.417a6.918 6.918 0 01-3.448-3.554l-1.82-4.248a1.095 1.095 0 011.944-.994l1.33 2.217c.277.46.783.747 1.32.747h.902c.758 0 1.397-.543 1.52-1.292l.135-.83a.662.662 0 00-1.305-.212l-.135.83a.218.218 0 01-.215.183h-.901a.22.22 0 01-.187-.106l-.38-.632a9.03 9.03 0 00.962-4.043v-2.63l1.52 1.816a.235.235 0 01.051.19l-.256 1.575a.659.659 0 00.653.767.662.662 0 00.651-.554l.257-1.576a1.556 1.556 0 00-.343-1.25l-2.533-3.027v-2.049l6.545 5.59a2.426 2.426 0 01.852 1.848v7.386c0 .328.08.654.23.944l.769 1.478a.66.66 0 001.245-.362.66.66 0 00-.072-.248zM31.329 25.925a5.7 5.7 0 00-1.234 6.882.662.662 0 001.216-.113.66.66 0 00-.046-.504 4.374 4.374 0 01.947-5.282.658.658 0 00.055-.939.66.66 0 00-.938-.044z"/><path d="M33.956 24.59a.66.66 0 00.272 1.293 4.441 4.441 0 011.697-.022.66.66 0 10.238-1.3 5.766 5.766 0 00-2.207.028zM19.775-1a.661.661 0 00-.661.66v.936c0 1.685-.7 3.318-1.92 4.48a6.17 6.17 0 01-1.828 1.207l-3.639 1.562a10.823 10.823 0 00-5.92 6.209 10.82 10.82 0 00.328 8.431v2.19l.002.024a3.67 3.67 0 00-1.212 2.725v1.172a.66.66 0 101.322 0v-1.172a2.351 2.351 0 01.825-1.79l6.572-5.613v2.05l-2.533 3.026a1.558 1.558 0 00-.343 1.25l.85 5.222a1.533 1.533 0 001.52 1.292h.901c.538 0 1.044-.286 1.32-.747l1.33-2.217a1.084 1.084 0 01.7-.505 1.085 1.085 0 01.849.16 1.095 1.095 0 01.396 1.339l-1.82 4.248a6.92 6.92 0 01-3.449 3.554l-.897.417a.662.662 0 00-.253.206l-2.685 3.63a.66.66 0 101.063.786l2.585-3.495.744-.346a8.28 8.28 0 00.683-.357l-.227 3.596a.66.66 0 101.319.083l.294-4.653v-.045a8.239 8.239 0 002.037-2.856l1.82-4.247a2.417 2.417 0 00-2.747-3.31 2.393 2.393 0 00-1.545 1.115l-.116.194a7.701 7.701 0 01-.474-2.651v-9.245a.66.66 0 10-1.322 0v.768l-6.187 5.285v-1.231c0-.1-.023-.198-.066-.288a9.513 9.513 0 01-.346-7.532 9.514 9.514 0 015.204-5.458l3.639-1.562a7.488 7.488 0 002.218-1.463 7.544 7.544 0 002.33-5.438v-.935A.66.66 0 0019.774-1zm-5.549 32.434a.22.22 0 01-.187.106h-.9a.217.217 0 01-.216-.183l-.85-5.223a.234.234 0 01.052-.189l1.52-1.815v2.63a9.03 9.03 0 00.96 4.042l-.379.632z"/><path d="M5.586 30.752a.661.661 0 00-.66.66v3.451a.653.653 0 01-.074.3l-.776 1.494a.66.66 0 001.172.61l.777-1.494a1.97 1.97 0 00.222-.91v-3.45a.66.66 0 00-.66-.661zm16.085-4.827a.662.662 0 00-1.038.776.66.66 0 00.155.206 4.378 4.378 0 011.449 3.25c0 .708-.174 1.412-.502 2.033a.661.661 0 001.17.617 5.7 5.7 0 00-1.233-6.882zm-4.834-1.364a.66.66 0 00.238 1.3 4.441 4.441 0 011.697.022.661.661 0 00.272-1.294 5.77 5.77 0 00-2.207-.028zM26.57-1a.661.661 0 00-.66.66v1.546a.66.66 0 101.321 0V-.339a.66.66 0 00-.66-.661zm0 5.914a.661.661 0 00-.66.661V7.12a.66.66 0 101.321 0V5.575a.66.66 0 00-.66-.66zm0 5.914a.66.66 0 00-.66.661v1.545a.66.66 0 101.321 0V11.49a.66.66 0 00-.66-.66zm0 5.915a.662.662 0 00-.66.66v1.546a.66.66 0 101.321 0v-1.546a.66.66 0 00-.66-.66zm0 5.914a.662.662 0 00-.66.66v1.546a.66.66 0 101.321 0v-1.545a.66.66 0 00-.66-.661zm0 5.914a.662.662 0 00-.66.66v1.546a.66.66 0 101.321 0v-1.545a.66.66 0 00-.66-.661zm0 5.914a.66.66 0 00-.66.661v1.545a.66.66 0 101.321 0v-1.545a.66.66 0 00-.66-.66zm0 5.914a.662.662 0 00-.66.661v1.545a.66.66 0 101.321 0V41.06a.66.66 0 00-.66-.66z"/></g></g><defs><clipPath id="clip0_413_1891"><path fill="#fff" d="M0 0h52v52H0z"/></clipPath><clipPath id="clip1_413_1891"><path fill="#fff" transform="translate(4 -1)" d="M0 0h45v45H0z"/></clipPath></defs></svg>
